systematic/svg/Nintendo - Nintendo Entertainment System-content.svg

<?xml version="1.0" encoding="UTF-8" standalone="no"?>
<svg
   xmlns:dc="http://purl.org/dc/elements/1.1/"
   xmlns:cc="http://creativecommons.org/ns#"
   xmlns:rdf="http://www.w3.org/1999/02/22-rdf-syntax-ns#"
   xmlns:svg="http://www.w3.org/2000/svg"
   xmlns="http://www.w3.org/2000/svg"
   viewBox="0 0 298.66665 330.66665"
   height="330.66666"
   width="298.66666"
   xml:space="preserve"
   id="svg2"
   version="1.1"><metadata
     id="metadata8"><rdf:RDF><cc:Work
         rdf:about=""><dc:format>image/svg+xml</dc:format><dc:type
           rdf:resource="http://purl.org/dc/dcmitype/StillImage" /></cc:Work></rdf:RDF></metadata><defs
     id="defs6"><clipPath
       id="clipPath18"
       clipPathUnits="userSpaceOnUse"><path
         id="path16"
         d="M 0,256 H 256 V 0 H 0 Z" /></clipPath><clipPath
       id="clipPath26"
       clipPathUnits="userSpaceOnUse"><path
         id="path24"
         d="M 16,252 H 240 V 4 H 16 Z" /></clipPath></defs><g
     transform="matrix(1.3333333,0,0,-1.3333333,-21.333333,335.99999)"
     id="g10"><g
       id="g12"><g
         clip-path="url(#clipPath18)"
         id="g14"><g
           id="g20"><g
             id="g22" /><g
             id="g34"><g
               style="opacity:0.5"
               id="g32"
               clip-path="url(#clipPath26)"><g
                 id="g30"
                 transform="translate(230,252)"><path
                   id="path28"
                   style="fill:#ffffff;fill-opacity:1;fill-rule:nonzero;stroke:none"
                   d="m 0,0 h -204 c -5.514,0 -10,-4.486 -10,-10 v -188 c 0,-5.013 3.707,-9.176 8.523,-9.892 l -0.489,-29.945 c -0.043,-2.662 1.003,-5.278 2.87,-7.176 1.868,-1.898 4.466,-2.987 7.129,-2.987 L -12,-248 c 5.514,0 10,4.486 10,10 v 30 h 2 c 5.514,0 10,4.486 10,10 V -10 C 10,-4.486 5.514,0 0,0" /></g></g></g></g><g
           transform="translate(230,244)"
           id="g36"><path
             id="path38"
             style="fill:#808080;fill-opacity:1;fill-rule:nonzero;stroke:none"
             d="m 0,0 h -204 c -1.104,0 -2,-0.896 -2,-2 v -188 c 0,-1.104 0.896,-2 2,-2 h 6.653 l -0.62,-37.968 c -0.018,-1.117 0.883,-2.032 2,-2.032 L -12,-232 c 1.104,0 2,0.896 2,2 v 38 H 0 c 1.104,0 2,0.896 2,2 V -2 C 2,-0.896 1.104,0 0,0" /></g><path
           id="path40"
           style="fill:#737373;fill-opacity:1;fill-rule:nonzero;stroke:none"
           d="M 100,36 H 56 v 4 h 44 z" /><path
           id="path42"
           style="fill:#666666;fill-opacity:1;fill-rule:nonzero;stroke:none"
           d="M 100,40 H 56 v 4 h 44 z" /><path
           id="path44"
           style="fill:#737373;fill-opacity:1;fill-rule:nonzero;stroke:none"
           d="M 100,44 H 56 v 4 h 44 z" /><path
           id="path46"
           style="fill:#666666;fill-opacity:1;fill-rule:nonzero;stroke:none"
           d="M 100,48 H 56 v 4 h 44 z" /><path
           id="path48"
           style="fill:#737373;fill-opacity:1;fill-rule:nonzero;stroke:none"
           d="M 100,52 H 56 v 4 h 44 z" /><path
           id="path50"
           style="fill:#666666;fill-opacity:1;fill-rule:nonzero;stroke:none"
           d="M 100,56 H 56 v 4 h 44 z" /><path
           id="path52"
           style="fill:#737373;fill-opacity:1;fill-rule:nonzero;stroke:none"
           d="M 100,60 H 56 v 4 h 44 z" /><path
           id="path54"
           style="fill:#666666;fill-opacity:1;fill-rule:nonzero;stroke:none"
           d="M 100,64 H 56 v 4 h 44 z" /><path
           id="path56"
           style="fill:#737373;fill-opacity:1;fill-rule:nonzero;stroke:none"
           d="M 100,68 H 56 v 4 h 44 z" /><path
           id="path58"
           style="fill:#666666;fill-opacity:1;fill-rule:nonzero;stroke:none"
           d="M 100,72 H 56 v 4 h 44 z" /><path
           id="path60"
           style="fill:#737373;fill-opacity:1;fill-rule:nonzero;stroke:none"
           d="M 100,76 H 56 v 4 h 44 z" /><path
           id="path62"
           style="fill:#666666;fill-opacity:1;fill-rule:nonzero;stroke:none"
           d="M 100,80 H 56 v 4 h 44 z" /><path
           id="path64"
           style="fill:#737373;fill-opacity:1;fill-rule:nonzero;stroke:none"
           d="M 100,84 H 56 v 4 h 44 z" /><path
           id="path66"
           style="fill:#666666;fill-opacity:1;fill-rule:nonzero;stroke:none"
           d="M 100,88 H 56 v 4 h 44 z" /><path
           id="path68"
           style="fill:#737373;fill-opacity:1;fill-rule:nonzero;stroke:none"
           d="M 100,92 H 56 v 4 h 44 z" /><path
           id="path70"
           style="fill:#666666;fill-opacity:1;fill-rule:nonzero;stroke:none"
           d="M 100,96 H 56 v 4 h 44 z" /><path
           id="path72"
           style="fill:#737373;fill-opacity:1;fill-rule:nonzero;stroke:none"
           d="M 100,100 H 56 v 4 h 44 z" /><path
           id="path74"
           style="fill:#666666;fill-opacity:1;fill-rule:nonzero;stroke:none"
           d="M 100,104 H 56 v 4 h 44 z" /><path
           id="path76"
           style="fill:#737373;fill-opacity:1;fill-rule:nonzero;stroke:none"
           d="M 100,108 H 56 v 4 h 44 z" /><path
           id="path78"
           style="fill:#666666;fill-opacity:1;fill-rule:nonzero;stroke:none"
           d="M 100,112 H 56 v 4 h 44 z" /><path
           id="path80"
           style="fill:#737373;fill-opacity:1;fill-rule:nonzero;stroke:none"
           d="M 100,116 H 56 v 4 h 44 z" /><path
           id="path82"
           style="fill:#666666;fill-opacity:1;fill-rule:nonzero;stroke:none"
           d="M 100,120 H 56 v 4 h 44 z" /><path
           id="path84"
           style="fill:#737373;fill-opacity:1;fill-rule:nonzero;stroke:none"
           d="M 100,124 H 56 v 4 h 44 z" /><path
           id="path86"
           style="fill:#666666;fill-opacity:1;fill-rule:nonzero;stroke:none"
           d="M 100,128 H 56 v 4 h 44 z" /><path
           id="path88"
           style="fill:#737373;fill-opacity:1;fill-rule:nonzero;stroke:none"
           d="M 100,132 H 56 v 4 h 44 z" /><path
           id="path90"
           style="fill:#666666;fill-opacity:1;fill-rule:nonzero;stroke:none"
           d="M 100,136 H 56 v 4 h 44 z" /><path
           id="path92"
           style="fill:#737373;fill-opacity:1;fill-rule:nonzero;stroke:none"
           d="M 100,140 H 56 v 4 h 44 z" /><path
           id="path94"
           style="fill:#666666;fill-opacity:1;fill-rule:nonzero;stroke:none"
           d="M 100,144 H 56 v 4 h 44 z" /><path
           id="path96"
           style="fill:#737373;fill-opacity:1;fill-rule:nonzero;stroke:none"
           d="M 100,148 H 56 v 4 h 44 z" /><path
           id="path98"
           style="fill:#666666;fill-opacity:1;fill-rule:nonzero;stroke:none"
           d="M 100,152 H 56 v 4 h 44 z" /><path
           id="path100"
           style="fill:#737373;fill-opacity:1;fill-rule:nonzero;stroke:none"
           d="M 100,156 H 56 v 4 h 44 z" /><path
           id="path102"
           style="fill:#666666;fill-opacity:1;fill-rule:nonzero;stroke:none"
           d="M 100,160 H 56 v 4 h 44 z" /><path
           id="path104"
           style="fill:#737373;fill-opacity:1;fill-rule:nonzero;stroke:none"
           d="M 100,164 H 56 v 4 h 44 z" /><path
           id="path106"
           style="fill:#666666;fill-opacity:1;fill-rule:nonzero;stroke:none"
           d="M 100,168 H 56 v 4 h 44 z" /><path
           id="path108"
           style="fill:#737373;fill-opacity:1;fill-rule:nonzero;stroke:none"
           d="M 100,172 H 56 v 4 h 44 z" /><path
           id="path110"
           style="fill:#666666;fill-opacity:1;fill-rule:nonzero;stroke:none"
           d="M 100,176 H 56 v 4 h 44 z" /><path
           id="path112"
           style="fill:#737373;fill-opacity:1;fill-rule:nonzero;stroke:none"
           d="M 100,180 H 56 v 4 h 44 z" /><path
           id="path114"
           style="fill:#666666;fill-opacity:1;fill-rule:nonzero;stroke:none"
           d="M 100,184 H 56 v 4 h 44 z" /><path
           id="path116"
           style="fill:#737373;fill-opacity:1;fill-rule:nonzero;stroke:none"
           d="M 100,188 H 56 v 4 h 44 z" /><path
           id="path118"
           style="fill:#666666;fill-opacity:1;fill-rule:nonzero;stroke:none"
           d="M 100,192 H 56 v 4 h 44 z" /><path
           id="path120"
           style="fill:#737373;fill-opacity:1;fill-rule:nonzero;stroke:none"
           d="M 100,196 H 56 v 4 h 44 z" /><path
           id="path122"
           style="fill:#666666;fill-opacity:1;fill-rule:nonzero;stroke:none"
           d="M 100,200 H 56 v 4 h 44 z" /><path
           id="path124"
           style="fill:#737373;fill-opacity:1;fill-rule:nonzero;stroke:none"
           d="M 100,204 H 56 v 4 h 44 z" /><path
           id="path126"
           style="fill:#595959;fill-opacity:1;fill-rule:nonzero;stroke:none"
           d="M 100,208 H 56 v 36 h 44 z" /><path
           id="path128"
           style="fill:#4c4c4c;fill-opacity:1;fill-rule:nonzero;stroke:none"
           d="M 100,212 H 56 v 4 h 44 z" /><path
           id="path130"
           style="fill:#4c4c4c;fill-opacity:1;fill-rule:nonzero;stroke:none"
           d="M 100,220 H 56 v 4 h 44 z" /><path
           id="path132"
           style="fill:#4c4c4c;fill-opacity:1;fill-rule:nonzero;stroke:none"
           d="M 100,228 H 56 v 4 h 44 z" /><path
           id="path134"
           style="fill:#4c4c4c;fill-opacity:1;fill-rule:nonzero;stroke:none"
           d="M 100,236 H 56 v 4 h 44 z" /><path
           id="path136"
           style="fill:#737373;fill-opacity:1;fill-rule:nonzero;stroke:none"
           d="M 100,12 H 56 v 24.33 h 44 z" /><g
           transform="translate(203,88)"
           id="g138"><path
             id="path140"
             style="fill:#191919;fill-opacity:1;fill-rule:nonzero;stroke:none"
             d="m 0,0 h -94 c -0.552,0 -1,0.447 -1,1 V 156 H 1 V 1 C 1,0.447 0.553,0 0,0" /></g><path
           id="path142"
           style="fill:#666666;fill-opacity:1;fill-rule:nonzero;stroke:none"
           d="m 224,240 h -12 v 4 h 12 z" /><path
           id="path144"
           style="fill:#666666;fill-opacity:1;fill-rule:nonzero;stroke:none"
           d="M 44,240 H 32 v 4 h 12 z" /><g
           transform="translate(128,56)"
           id="g146"><path
             id="path148"
             style="fill:#737373;fill-opacity:1;fill-rule:nonzero;stroke:none"
             d="M 0,0 -10,16 H 10 Z" /></g><g
           transform="translate(112.5967,108.6182)"
           id="g150"><path
             id="path152"
             style="fill:#b80000;fill-opacity:1;fill-rule:nonzero;stroke:none"
             d="M 0,0 H 17.607 L 26.529,30.598 0,25.79 Z m 18.062,-0.618 h -18.67 v 26.924 l 0.25,0.046 27.75,5.03 z" /></g><g
           transform="translate(132.4082,115.0889)"
           id="g154"><path
             id="path156"
             style="fill:#b80000;fill-opacity:1;fill-rule:nonzero;stroke:none"
             d="M 0,0 -20.116,0.118 V -6.78 h 18.138 z" /></g><g
           transform="translate(116,236)"
           id="g158"><path
             id="path160"
             style="fill:#b80000;fill-opacity:1;fill-rule:nonzero;stroke:none"
             d="m 0,0 v -79.063 c 16.536,3.632 80,16.512 80,16.512 V 0 Z" /></g></g></g></g></svg>

<?xml version="1.0" encoding="UTF-8" standalone="no"?>
<svg
   xmlns:dc="http://purl.org/dc/elements/1.1/"
   xmlns:cc="http://creativecommons.org/ns#"
   xmlns:rdf="http://www.w3.org/1999/02/22-rdf-syntax-ns#"
   xmlns:svg="http://www.w3.org/2000/svg"
   xmlns="http://www.w3.org/2000/svg"
   viewBox="0 0 320 320"
   height="320"
   width="320"
   xml:space="preserve"
   version="1.1"
   id="svg2"><metadata
     id="metadata8"><rdf:RDF><cc:Work
         rdf:about=""><dc:format>image/svg+xml</dc:format><dc:type
           rdf:resource="http://purl.org/dc/dcmitype/StillImage" /></cc:Work></rdf:RDF></metadata><defs
     id="defs6"><clipPath
       id="clipPath16"
       clipPathUnits="userSpaceOnUse"><path
         id="path18"
         d="M 0,256 256,256 256,0 0,0 0,256 Z" /></clipPath><clipPath
       id="clipPath24"
       clipPathUnits="userSpaceOnUse"><path
         id="path26"
         d="M 16,252 240,252 240,4 16,4 16,252 Z" /></clipPath></defs><g
     transform="matrix(1.25,0,0,-1.25,0,320)"
     id="g10"><g
       id="g12"><g
         clip-path="url(#clipPath16)"
         id="g14"><g
           id="g20"><g
             id="g22" /><g
             id="g28"><g
               style="opacity:0.5"
               id="g30"
               clip-path="url(#clipPath24)"><g
                 id="g32"
                 transform="translate(230,252)"><path
                   id="path34"
                   style="fill:#ffffff;fill-opacity:1;fill-rule:nonzero;stroke:none"
                   d="m 0,0 -204,0 c -5.514,0 -10,-4.486 -10,-10 l 0,-188 c 0,-5.013 3.707,-9.176 8.523,-9.892 l -0.489,-29.945 c -0.043,-2.662 1.003,-5.278 2.87,-7.176 1.868,-1.898 4.466,-2.987 7.129,-2.987 L -12,-248 c 5.514,0 10,4.486 10,10 l 0,30 2,0 c 5.514,0 10,4.486 10,10 l 0,188 C 10,-4.486 5.514,0 0,0" /></g></g></g></g><g
           transform="translate(230,244)"
           id="g36"><path
             id="path38"
             style="fill:#808080;fill-opacity:1;fill-rule:nonzero;stroke:none"
             d="m 0,0 -204,0 c -1.104,0 -2,-0.896 -2,-2 l 0,-188 c 0,-1.104 0.896,-2 2,-2 l 6.653,0 -0.62,-37.968 c -0.018,-1.117 0.883,-2.032 2,-2.032 L -12,-232 c 1.104,0 2,0.896 2,2 l 0,38 10,0 c 1.104,0 2,0.896 2,2 L 2,-2 C 2,-0.896 1.104,0 0,0" /></g><path
           id="path40"
           style="fill:#737373;fill-opacity:1;fill-rule:nonzero;stroke:none"
           d="m 100,36 -44,0 0,4 44,0 0,-4 z" /><path
           id="path42"
           style="fill:#666666;fill-opacity:1;fill-rule:nonzero;stroke:none"
           d="m 100,40 -44,0 0,4 44,0 0,-4 z" /><path
           id="path44"
           style="fill:#737373;fill-opacity:1;fill-rule:nonzero;stroke:none"
           d="m 100,44 -44,0 0,4 44,0 0,-4 z" /><path
           id="path46"
           style="fill:#666666;fill-opacity:1;fill-rule:nonzero;stroke:none"
           d="m 100,48 -44,0 0,4 44,0 0,-4 z" /><path
           id="path48"
           style="fill:#737373;fill-opacity:1;fill-rule:nonzero;stroke:none"
           d="m 100,52 -44,0 0,4 44,0 0,-4 z" /><path
           id="path50"
           style="fill:#666666;fill-opacity:1;fill-rule:nonzero;stroke:none"
           d="m 100,56 -44,0 0,4 44,0 0,-4 z" /><path
           id="path52"
           style="fill:#737373;fill-opacity:1;fill-rule:nonzero;stroke:none"
           d="m 100,60 -44,0 0,4 44,0 0,-4 z" /><path
           id="path54"
           style="fill:#666666;fill-opacity:1;fill-rule:nonzero;stroke:none"
           d="m 100,64 -44,0 0,4 44,0 0,-4 z" /><path
           id="path56"
           style="fill:#737373;fill-opacity:1;fill-rule:nonzero;stroke:none"
           d="m 100,68 -44,0 0,4 44,0 0,-4 z" /><path
           id="path58"
           style="fill:#666666;fill-opacity:1;fill-rule:nonzero;stroke:none"
           d="m 100,72 -44,0 0,4 44,0 0,-4 z" /><path
           id="path60"
           style="fill:#737373;fill-opacity:1;fill-rule:nonzero;stroke:none"
           d="m 100,76 -44,0 0,4 44,0 0,-4 z" /><path
           id="path62"
           style="fill:#666666;fill-opacity:1;fill-rule:nonzero;stroke:none"
           d="m 100,80 -44,0 0,4 44,0 0,-4 z" /><path
           id="path64"
           style="fill:#737373;fill-opacity:1;fill-rule:nonzero;stroke:none"
           d="m 100,84 -44,0 0,4 44,0 0,-4 z" /><path
           id="path66"
           style="fill:#666666;fill-opacity:1;fill-rule:nonzero;stroke:none"
           d="m 100,88 -44,0 0,4 44,0 0,-4 z" /><path
           id="path68"
           style="fill:#737373;fill-opacity:1;fill-rule:nonzero;stroke:none"
           d="m 100,92 -44,0 0,4 44,0 0,-4 z" /><path
           id="path70"
           style="fill:#666666;fill-opacity:1;fill-rule:nonzero;stroke:none"
           d="m 100,96 -44,0 0,4 44,0 0,-4 z" /><path
           id="path72"
           style="fill:#737373;fill-opacity:1;fill-rule:nonzero;stroke:none"
           d="m 100,100 -44,0 0,4 44,0 0,-4 z" /><path
           id="path74"
           style="fill:#666666;fill-opacity:1;fill-rule:nonzero;stroke:none"
           d="m 100,104 -44,0 0,4 44,0 0,-4 z" /><path
           id="path76"
           style="fill:#737373;fill-opacity:1;fill-rule:nonzero;stroke:none"
           d="m 100,108 -44,0 0,4 44,0 0,-4 z" /><path
           id="path78"
           style="fill:#666666;fill-opacity:1;fill-rule:nonzero;stroke:none"
           d="m 100,112 -44,0 0,4 44,0 0,-4 z" /><path
           id="path80"
           style="fill:#737373;fill-opacity:1;fill-rule:nonzero;stroke:none"
           d="m 100,116 -44,0 0,4 44,0 0,-4 z" /><path
           id="path82"
           style="fill:#666666;fill-opacity:1;fill-rule:nonzero;stroke:none"
           d="m 100,120 -44,0 0,4 44,0 0,-4 z" /><path
           id="path84"
           style="fill:#737373;fill-opacity:1;fill-rule:nonzero;stroke:none"
           d="m 100,124 -44,0 0,4 44,0 0,-4 z" /><path
           id="path86"
           style="fill:#666666;fill-opacity:1;fill-rule:nonzero;stroke:none"
           d="m 100,128 -44,0 0,4 44,0 0,-4 z" /><path
           id="path88"
           style="fill:#737373;fill-opacity:1;fill-rule:nonzero;stroke:none"
           d="m 100,132 -44,0 0,4 44,0 0,-4 z" /><path
           id="path90"
           style="fill:#666666;fill-opacity:1;fill-rule:nonzero;stroke:none"
           d="m 100,136 -44,0 0,4 44,0 0,-4 z" /><path
           id="path92"
           style="fill:#737373;fill-opacity:1;fill-rule:nonzero;stroke:none"
           d="m 100,140 -44,0 0,4 44,0 0,-4 z" /><path
           id="path94"
           style="fill:#666666;fill-opacity:1;fill-rule:nonzero;stroke:none"
           d="m 100,144 -44,0 0,4 44,0 0,-4 z" /><path
           id="path96"
           style="fill:#737373;fill-opacity:1;fill-rule:nonzero;stroke:none"
           d="m 100,148 -44,0 0,4 44,0 0,-4 z" /><path
           id="path98"
           style="fill:#666666;fill-opacity:1;fill-rule:nonzero;stroke:none"
           d="m 100,152 -44,0 0,4 44,0 0,-4 z" /><path
           id="path100"
           style="fill:#737373;fill-opacity:1;fill-rule:nonzero;stroke:none"
           d="m 100,156 -44,0 0,4 44,0 0,-4 z" /><path
           id="path102"
           style="fill:#666666;fill-opacity:1;fill-rule:nonzero;stroke:none"
           d="m 100,160 -44,0 0,4 44,0 0,-4 z" /><path
           id="path104"
           style="fill:#737373;fill-opacity:1;fill-rule:nonzero;stroke:none"
           d="m 100,164 -44,0 0,4 44,0 0,-4 z" /><path
           id="path106"
           style="fill:#666666;fill-opacity:1;fill-rule:nonzero;stroke:none"
           d="m 100,168 -44,0 0,4 44,0 0,-4 z" /><path
           id="path108"
           style="fill:#737373;fill-opacity:1;fill-rule:nonzero;stroke:none"
           d="m 100,172 -44,0 0,4 44,0 0,-4 z" /><path
           id="path110"
           style="fill:#666666;fill-opacity:1;fill-rule:nonzero;stroke:none"
           d="m 100,176 -44,0 0,4 44,0 0,-4 z" /><path
           id="path112"
           style="fill:#737373;fill-opacity:1;fill-rule:nonzero;stroke:none"
           d="m 100,180 -44,0 0,4 44,0 0,-4 z" /><path
           id="path114"
           style="fill:#666666;fill-opacity:1;fill-rule:nonzero;stroke:none"
           d="m 100,184 -44,0 0,4 44,0 0,-4 z" /><path
           id="path116"
           style="fill:#737373;fill-opacity:1;fill-rule:nonzero;stroke:none"
           d="m 100,188 -44,0 0,4 44,0 0,-4 z" /><path
           id="path118"
           style="fill:#666666;fill-opacity:1;fill-rule:nonzero;stroke:none"
           d="m 100,192 -44,0 0,4 44,0 0,-4 z" /><path
           id="path120"
           style="fill:#737373;fill-opacity:1;fill-rule:nonzero;stroke:none"
           d="m 100,196 -44,0 0,4 44,0 0,-4 z" /><path
           id="path122"
           style="fill:#666666;fill-opacity:1;fill-rule:nonzero;stroke:none"
           d="m 100,200 -44,0 0,4 44,0 0,-4 z" /><path
           id="path124"
           style="fill:#737373;fill-opacity:1;fill-rule:nonzero;stroke:none"
           d="m 100,204 -44,0 0,4 44,0 0,-4 z" /><path
           id="path126"
           style="fill:#595959;fill-opacity:1;fill-rule:nonzero;stroke:none"
           d="m 100,208 -44,0 0,36 44,0 0,-36 z" /><path
           id="path128"
           style="fill:#4c4c4c;fill-opacity:1;fill-rule:nonzero;stroke:none"
           d="m 100,212 -44,0 0,4 44,0 0,-4 z" /><path
           id="path130"
           style="fill:#4c4c4c;fill-opacity:1;fill-rule:nonzero;stroke:none"
           d="m 100,220 -44,0 0,4 44,0 0,-4 z" /><path
           id="path132"
           style="fill:#4c4c4c;fill-opacity:1;fill-rule:nonzero;stroke:none"
           d="m 100,228 -44,0 0,4 44,0 0,-4 z" /><path
           id="path134"
           style="fill:#4c4c4c;fill-opacity:1;fill-rule:nonzero;stroke:none"
           d="m 100,236 -44,0 0,4 44,0 0,-4 z" /><path
           id="path136"
           style="fill:#737373;fill-opacity:1;fill-rule:nonzero;stroke:none"
           d="m 100,12 -44,0 0,24.33 44,0 0,-24.33 z" /><g
           transform="translate(203,88)"
           id="g138"><path
             id="path140"
             style="fill:#191919;fill-opacity:1;fill-rule:nonzero;stroke:none"
             d="m 0,0 -94,0 c -0.552,0 -1,0.447 -1,1 l 0,155 96,0 L 1,1 C 1,0.447 0.553,0 0,0" /></g><path
           id="path142"
           style="fill:#666666;fill-opacity:1;fill-rule:nonzero;stroke:none"
           d="m 224,240 -12,0 0,4 12,0 0,-4 z" /><path
           id="path144"
           style="fill:#666666;fill-opacity:1;fill-rule:nonzero;stroke:none"
           d="m 44,240 -12,0 0,4 12,0 0,-4 z" /><g
           transform="translate(128,56)"
           id="g146"><path
             id="path148"
             style="fill:#737373;fill-opacity:1;fill-rule:nonzero;stroke:none"
             d="M 0,0 -10,16 10,16 0,0 Z" /></g><g
           transform="translate(112.5967,108.6182)"
           id="g150"><path
             id="path152"
             style="fill:#b80000;fill-opacity:1;fill-rule:nonzero;stroke:none"
             d="M 0,0 17.607,0 26.529,30.598 0,25.79 0,0 Z m 18.062,-0.618 -18.67,0 0,26.924 0.25,0.046 27.75,5.03 -9.33,-32 z" /></g><g
           transform="translate(132.4082,115.0889)"
           id="g154"><path
             id="path156"
             style="fill:#b80000;fill-opacity:1;fill-rule:nonzero;stroke:none"
             d="m 0,0 -20.116,0.118 0,-6.898 18.138,0 L 0,0 Z" /></g><g
           transform="translate(116,236)"
           id="g158"><path
             id="path160"
             style="fill:#b80000;fill-opacity:1;fill-rule:nonzero;stroke:none"
             d="m 0,0 0,-79.063 c 16.536,3.632 80,16.512 80,16.512 L 80,0 0,0 Z" /></g></g></g></g></svg>
